public/images/cookies.svg

<svg width="44" height="28" viewBox="0 0 44 28" fill="none" xmlns="http://www.w3.org/2000/svg">
<path d="M29.9276 0.717548C26.9412 0.717548 24.0571 1.73277 21.7392 3.58896C19.5236 1.98075 16.8678 1.11108 14.0793 1.11108C12.7514 1.11108 11.4361 1.31053 10.1693 1.70586L9.60861 1.88016L9.66791 2.46413C9.72002 2.98163 9.54033 3.49554 9.17557 3.8657C9.03002 4.01125 8.86112 4.12625 8.67426 4.20531L7.80459 4.57367L8.39035 5.31399C9.1109 6.22502 9.0372 7.52774 8.21965 8.3453C7.7902 8.77475 7.22058 9.01014 6.61324 9.01014C6.10112 9.01014 5.59981 8.83584 5.2009 8.5178L4.49655 7.95536L4.10483 8.76933C4.0078 8.97237 3.88561 9.14667 3.74186 9.29221C3.36991 9.66416 2.85958 9.84743 2.34029 9.79352L1.75632 9.73422L1.58202 10.2949C0.130169 14.9524 1.37179 19.9944 4.82001 23.4532C7.29071 25.9239 10.5774 27.2841 14.0738 27.2841C17.089 27.2841 19.9462 26.2707 22.2586 24.4091C24.5047 26.0334 27.1424 26.8888 29.9259 26.8888C37.1405 26.8888 43.0087 21.0182 43.0087 13.8041C43.0123 6.58759 37.1419 0.717529 29.9273 0.717529L29.9276 0.717548ZM5.84066 22.4364C2.89381 19.4806 1.75816 15.2273 2.81294 11.2239C3.54788 11.1557 4.23066 10.8358 4.76256 10.3057C4.83803 10.2303 4.9099 10.1494 4.97998 10.065C5.48672 10.3147 6.04911 10.4477 6.61873 10.4477C7.60879 10.4477 8.5396 10.0614 9.24036 9.36057C10.3796 8.22134 10.6347 6.50356 9.95014 5.10199C10.0364 5.03191 10.1208 4.95824 10.1999 4.87738C10.7228 4.34553 11.0372 3.65911 11.1037 2.93314C12.074 2.67798 13.0731 2.54861 14.0812 2.54861C17.1897 2.54861 20.1131 3.7597 22.3142 5.96089C26.8567 10.5034 26.8567 17.8924 22.3142 22.4344C20.1149 24.6338 17.1894 25.8449 14.0775 25.8449C10.9635 25.8449 8.03814 24.6338 5.84072 22.4362L5.84066 22.4364ZM29.9276 25.4498C27.5558 25.4498 25.3023 24.749 23.3584 23.4211C28.429 18.316 28.4202 10.0379 23.3278 4.94568C23.1841 4.80014 23.0349 4.65998 22.8858 4.52342C24.9055 2.99429 27.3744 2.15695 29.9279 2.15695C36.35 2.15695 41.5733 7.38209 41.5733 13.8041C41.5751 20.2244 36.35 25.4495 29.9279 25.4495L29.9276 25.4498Z" fill="black"/>
<path d="M14.8521 10.2354C15.4702 10.2354 16.0506 9.99462 16.4854 9.55975C16.9239 9.1285 17.1665 8.54991 17.17 7.93177C17.1718 7.30824 16.9311 6.72247 16.4854 6.27682C16.047 5.84557 15.4666 5.6084 14.8521 5.6084C14.2375 5.6084 13.6571 5.84559 13.2097 6.28584C12.3167 7.19328 12.3185 8.66133 13.2133 9.55796C13.6518 9.9946 14.234 10.2354 14.8521 10.2354H14.8521ZM14.2267 7.29931C14.3938 7.134 14.6167 7.04415 14.8521 7.04415C15.0875 7.04415 15.3103 7.1358 15.4738 7.29572C15.6427 7.46463 15.7343 7.68744 15.7325 7.92463C15.7308 8.15643 15.6409 8.37385 15.4738 8.53915C15.1396 8.87336 14.5664 8.87336 14.2304 8.53915C13.8908 8.19954 13.8926 7.63893 14.2268 7.29931L14.2267 7.29931Z" fill="black"/>
<path d="M5.82456 12.6541C5.20641 12.6541 4.62603 12.8948 4.18222 13.3387C3.29635 14.2389 3.29635 15.7051 4.18581 16.6108C4.62425 17.0492 5.20646 17.2918 5.82456 17.2918C6.44266 17.2918 7.02309 17.0492 7.46331 16.6108C8.36712 15.707 8.36712 14.2371 7.46331 13.3351C7.02308 12.8966 6.44266 12.6541 5.82456 12.6541H5.82456ZM6.44629 15.5955C6.11207 15.9297 5.53347 15.9261 5.20825 15.5991C4.86864 15.2541 4.86864 14.6935 5.20465 14.3521C5.37176 14.185 5.59278 14.0934 5.82639 14.0934C6.05998 14.0934 6.281 14.185 6.44813 14.3521C6.79492 14.7007 6.79492 15.2469 6.44633 15.5955L6.44629 15.5955Z" fill="black"/>
<path d="M14.7173 19.5813C15.3354 19.5813 15.9158 19.3387 16.3596 18.8966C17.2455 17.9964 17.2455 16.5302 16.3506 15.6209C15.9122 15.1897 15.3318 14.9525 14.7173 14.9525C14.1028 14.9525 13.5223 15.1897 13.0785 15.6245C12.1747 16.5283 12.1747 17.9964 13.0785 18.9002C13.5188 19.3405 14.101 19.5813 14.7173 19.5813H14.7173ZM14.092 16.647C14.2591 16.4817 14.4819 16.3918 14.7173 16.3918C14.9527 16.3918 15.1755 16.4835 15.3354 16.6398C15.675 16.9848 15.675 17.5454 15.339 17.8868C15.0048 18.221 14.4316 18.221 14.0956 17.8868C13.7488 17.5364 13.7488 16.9902 14.092 16.647L14.092 16.647Z" fill="black"/>
<path d="M19.5546 10.0054C18.9365 10.0054 18.3561 10.2479 17.9213 10.681C17.4828 11.1123 17.2402 11.6909 17.2367 12.309C17.2349 12.9325 17.4756 13.5183 17.9213 13.9639C18.3597 14.3952 18.9401 14.6324 19.5546 14.6324C20.1692 14.6324 20.7496 14.3952 21.1934 13.9604C21.6354 13.5183 21.8762 12.9325 21.8744 12.3091C21.8708 11.6909 21.6282 11.1123 21.1934 10.6847C20.755 10.2463 20.1727 10.0055 19.5546 10.0055V10.0054ZM20.1818 12.9415C19.8457 13.2721 19.2618 13.2667 18.9347 12.9451C18.7658 12.7761 18.6742 12.5533 18.676 12.3161C18.6778 12.0843 18.7676 11.8669 18.9347 11.7016C19.1019 11.5345 19.3229 11.4429 19.5565 11.4429C19.7901 11.4429 20.0111 11.5345 20.1818 11.707C20.3453 11.8687 20.4352 12.0844 20.437 12.3161C20.437 12.5533 20.3453 12.7761 20.1818 12.9415L20.1818 12.9415Z" fill="black"/>
<path d="M15.2619 19.7717C14.6438 19.7717 14.0634 20.0124 13.6232 20.4527C13.1847 20.8911 12.9421 21.4733 12.9421 22.0914C12.9421 22.7095 13.1847 23.29 13.6268 23.7338C14.0652 24.165 14.6456 24.4022 15.2601 24.4022C15.8746 24.4022 16.4551 24.165 16.9025 23.7248C17.7883 22.8245 17.7883 21.3583 16.8989 20.4526C16.4622 20.0142 15.8801 19.7716 15.2619 19.7716L15.2619 19.7717ZM15.889 22.7077C15.553 23.0384 14.969 23.033 14.642 22.7113C14.4749 22.5442 14.3833 22.3232 14.3833 22.0896C14.3833 21.856 14.4749 21.635 14.642 21.4679C14.8091 21.3008 15.0301 21.2091 15.2638 21.2091C15.4974 21.2091 15.7184 21.3008 15.8819 21.4643C16.2197 21.8093 16.2197 22.3717 15.8891 22.7077L15.889 22.7077Z" fill="black"/>
<path d="M30.1112 8.87333C30.9971 7.97311 30.9971 6.50686 30.1022 5.59763C29.6638 5.16638 29.0834 4.9292 28.4688 4.9292C27.8543 4.9292 27.2739 5.16638 26.8301 5.60121C25.9263 6.50502 25.9263 7.97306 26.8301 8.87692C27.2685 9.31535 27.8507 9.55795 28.4688 9.55795C29.0869 9.55795 29.6692 9.31537 30.1112 8.87333H30.1112ZM27.8435 6.62186C28.0106 6.45655 28.2334 6.3667 28.4688 6.3667C28.7042 6.3667 28.927 6.45834 29.087 6.61467C29.4266 6.95967 29.4266 7.52032 29.0906 7.86168C28.7564 8.1959 28.1831 8.1959 27.8472 7.86168C27.5004 7.51309 27.5004 6.96685 27.8436 6.62185L27.8435 6.62186Z" fill="black"/>
<path d="M37.8861 12.5896C37.4513 12.1476 36.8709 11.905 36.2474 11.905C35.6274 11.905 35.0434 12.1476 34.6014 12.5896C33.7156 13.4899 33.7156 14.9561 34.6104 15.8654C35.0488 16.2966 35.6311 16.5338 36.2474 16.5338C36.8673 16.5338 37.4477 16.2948 37.8807 15.8618C38.3192 15.4233 38.5618 14.8411 38.5618 14.223C38.5636 13.6067 38.321 13.0245 37.8861 12.5896H37.8861ZM36.8655 14.8447C36.5384 15.1717 35.9437 15.161 35.6274 14.8483C35.2878 14.5033 35.2878 13.9427 35.6238 13.6013C35.7909 13.4342 36.0137 13.3425 36.2491 13.3425C36.4827 13.3425 36.7002 13.4342 36.8673 13.6013C37.0344 13.7684 37.126 13.9894 37.126 14.223C37.126 14.4566 37.0326 14.6776 36.8655 14.8448L36.8655 14.8447Z" fill="black"/>
<path d="M30.4617 18.2909C29.8472 18.2909 29.2668 18.5281 28.8194 18.9683C27.9335 19.8686 27.9335 21.3348 28.8248 22.2405C29.2632 22.6789 29.8454 22.9215 30.4635 22.9215C31.0816 22.9215 31.662 22.6789 32.1023 22.2405C33.0061 21.3366 33.0061 19.8668 32.0987 18.9594C31.6584 18.5281 31.078 18.2909 30.4617 18.2909L30.4617 18.2909ZM31.0834 21.2234C30.7492 21.5576 30.1706 21.554 29.8454 21.227C29.5058 20.882 29.5058 20.3213 29.8364 19.9836C30.0035 19.8183 30.2263 19.7284 30.4617 19.7284C30.6971 19.7284 30.9199 19.8182 31.0835 19.98C31.4321 20.3286 31.4321 20.8748 31.0835 21.2234H31.0834Z" fill="black"/>
<path d="M31.2271 14.8248C32.1309 13.921 32.1309 12.4511 31.2271 11.5491C30.7941 11.116 30.2137 10.8771 29.5938 10.8771C28.9738 10.8771 28.3952 11.1161 27.9604 11.5491C27.522 11.9875 27.2794 12.5697 27.2794 13.1878C27.2794 13.8059 27.522 14.3864 27.955 14.8212C28.3899 15.2632 28.9702 15.5058 29.592 15.5058C30.2155 15.504 30.7977 15.2615 31.2271 14.8248ZM28.7187 13.186C28.7187 12.9525 28.8104 12.7314 28.9775 12.5643C29.1392 12.4026 29.3584 12.3127 29.5938 12.3127C29.8292 12.3127 30.0484 12.4026 30.2101 12.5643C30.5587 12.9129 30.5587 13.4591 30.2065 13.8113C29.8831 14.1402 29.3099 14.1455 28.9774 13.8077C28.8103 13.6406 28.7187 13.4196 28.7187 13.186L28.7187 13.186Z" fill="black"/>
</svg>

<svg width="44" height="28" fill="none" xmlns="http://www.w3.org/2000/svg"><path d="M29.928.718c-2.987 0-5.87 1.015-8.189 2.871a12.98 12.98 0 00-7.66-2.478c-1.328 0-2.643.2-3.91.595l-.56.174.059.584a1.747 1.747 0 01-.492 1.402 1.61 1.61 0 01-.502.34l-.87.368.586.74c.72.911.647 2.214-.17 3.031a2.272 2.272 0 01-3.019.172l-.704-.562-.392.814a1.91 1.91 0 01-.363.523 1.724 1.724 0 01-1.402.502l-.584-.06-.174.56a13.08 13.08 0 003.238 13.16 13 13 0 009.254 3.83c3.015 0 5.872-1.013 8.185-2.875a12.973 12.973 0 007.667 2.48c7.215 0 13.083-5.87 13.083-13.085C43.012 6.588 37.142.718 29.927.718zM5.84 22.436a11.646 11.646 0 01-3.028-11.212 3.164 3.164 0 002.167-1.159c.507.25 1.07.383 1.639.383.99 0 1.92-.387 2.621-1.087a3.718 3.718 0 00.71-4.259 3.184 3.184 0 001.154-2.169c.97-.255 1.97-.384 2.977-.384 3.109 0 6.032 1.21 8.233 3.412 4.543 4.542 4.543 11.931 0 16.473a11.57 11.57 0 01-8.236 3.41 11.57 11.57 0 01-8.237-3.408zm24.087 3.014c-2.372 0-4.626-.701-6.57-2.029 5.071-5.105 5.062-13.383-.03-18.475a12.185 12.185 0 00-.442-.423 11.663 11.663 0 017.042-2.366c6.422 0 11.645 5.225 11.645 11.647.002 6.42-5.223 11.646-11.645 11.646z" fill="#000"/><path d="M14.852 10.235c.618 0 1.199-.24 1.633-.675a2.31 2.31 0 00-1.633-3.951c-.615 0-1.195.237-1.642.677a2.331 2.331 0 00.003 3.272 2.309 2.309 0 001.64.677zM14.227 7.3a.884.884 0 01.625-.255.873.873 0 01.622 1.495.896.896 0 01-1.244 0 .887.887 0 01-.003-1.24zm-8.402 5.354c-.619 0-1.199.24-1.643.685-.886.9-.886 2.366.004 3.272.438.438 1.02.68 1.639.68a2.318 2.318 0 000-4.638zm.621 2.941a.897.897 0 01-1.238.004.894.894 0 01-.003-1.247.874.874 0 011.243 0 .871.871 0 01-.002 1.243zm8.271 3.986a2.31 2.31 0 001.643-.684c.886-.9.886-2.367-.01-3.276a2.316 2.316 0 00-1.633-.668 2.33 2.33 0 00-1.639.671 2.318 2.318 0 001.64 3.957zm-.625-2.934a.884.884 0 01.625-.255c.236 0 .458.091.618.248.34.345.34.905.004 1.247a.896.896 0 01-1.243 0 .872.872 0 01-.004-1.24zm5.463-6.642c-.619 0-1.199.243-1.634.676a2.31 2.31 0 001.633 3.951 2.308 2.308 0 002.32-2.323 2.282 2.282 0 00-.68-1.624 2.303 2.303 0 00-1.64-.68zm.627 2.936a.917.917 0 01-1.247.004.873.873 0 010-1.243.875.875 0 011.247.005.858.858 0 01.255.61c0 .236-.092.46-.255.624zm-4.92 6.831a2.3 2.3 0 00-1.639.68 2.31 2.31 0 001.637 3.95c.615 0 1.195-.237 1.643-.677.885-.9.885-2.367-.004-3.272a2.297 2.297 0 00-1.637-.681zm.627 2.936a.917.917 0 01-1.247.003.874.874 0 010-1.243.874.874 0 011.24-.004.896.896 0 01.007 1.244zM30.111 8.873c.886-.9.886-2.366-.009-3.275a2.316 2.316 0 00-1.633-.669c-.615 0-1.195.237-1.639.672a2.318 2.318 0 103.281 3.272zm-2.268-2.251a.884.884 0 01.626-.255c.235 0 .458.091.618.248.34.345.34.905.004 1.247a.896.896 0 01-1.244 0 .872.872 0 01-.003-1.24zm10.043 5.968a2.278 2.278 0 00-1.639-.685c-.62 0-1.204.243-1.646.685-.885.9-.885 2.366.01 3.275.438.432 1.02.669 1.636.669a2.305 2.305 0 002.314-2.311 2.291 2.291 0 00-.675-1.633zm-1.02 2.255c-.328.327-.922.316-1.239.003a.894.894 0 01-.003-1.247.88.88 0 111.241 1.244zm-6.404 3.445c-.615 0-1.195.238-1.643.678-.886.9-.886 2.367.006 3.273.438.438 1.02.68 1.639.68a2.32 2.32 0 001.635-3.962 2.325 2.325 0 00-1.637-.668zm.621 2.933a.897.897 0 01-1.238.004.895.895 0 01-.009-1.243.884.884 0 01.626-.256.88.88 0 01.622.252.87.87 0 010 1.243zm.144-6.398a2.318 2.318 0 000-3.276 2.293 2.293 0 00-1.633-.672c-.62 0-1.199.24-1.634.672a2.304 2.304 0 00-.68 1.639c0 .618.242 1.198.675 1.633a2.277 2.277 0 001.637.685 2.286 2.286 0 001.635-.681zm-2.508-1.639a.874.874 0 011.491-.622.871.871 0 01-.004 1.247.874.874 0 01-1.488-.625z" fill="#000"/></svg>
